X:0683
T:Too old to marry.
M:2/4
L:1/8
Q:1/4=104
I: :: :: :|
N:bars 7 and 8 in third part printed |abag fgfe|dedc BcBA| (i.e. double length)
Z:Jack Campin * www.campin.me.uk * 2009
K:G
G>A```GB   |B/A/G/A/ G2|B>c``````Bd      |d/c/B/c/ B2      |\
de/d/ de/d/|de/d/    db|c'a``````gf      |g2       g2     :|
dd````cB   |dd```````cB|ee```````dc      |ee```````dc      |\
dd````cB   |dd```````cB|cA```````GF      |G2       G2     :|
Gd/c/ dc   |Bg/f/    gg|Gd/c/    dc      |Bg/f/    gg      |\
cf/g/ c'c' |Gf/a/    bb|a/b/a/g/ f/g/f/e/|d/e/d/c/ B/c/B/A/|
dd````cB   |dd```````cB|ee```````dc      |ee```````dc      |\
dd````cB   |dd```````cB|cA`` ````GF      |G2       G2     |]

